assets/img/braze_icons/file-question-01.svg

<svg fill="none" height="24" viewBox="0 0 24 24" width="24" xmlns="http://www.w3.org/2000/svg"><g fill="#801ed7"><path d="m17.9884 14.6721c.2542-.1494.553-.204.8436-.1541.2905.0498.5541.2009.7439.4264.1899.2255.2938.511.2934.8058v.0015c0 .2186-.1772.5197-.6789.8542-.2204.1469-.4479.2614-.6243.3398-.0868.0385-.1577.0668-.2045.0847-.0234.0089-.0405.0151-.0504.0186l-.0092.0032.0011-.0003c-.5229.1752-.8053.7409-.6308 1.2643.1746.524.7409.8071 1.2649.6325l.0012-.0004.0428-.0149c.0231-.0082.0542-.0195.0923-.034.0761-.029.1809-.071.3049-.1261.2452-.109.5797-.2755.9214-.5033.6223-.4149 1.569-1.2376 1.5695-2.5174.001-.7669-.2694-1.5095-.7633-2.0962-.494-.5869-1.1798-.9799-1.9359-1.1096s-1.5337.0124-2.195.401c-.6614.3887-1.1638.9989-1.4184 1.7226-.1833.521.0905 1.0919.6115 1.2752.521.1832 1.0919-.0905 1.2752-.6115.0978-.2781.2909-.5126.545-.662z"/><path d="m18.65 20c-.5523 0-1 .4477-1 1s.4477 1 1 1h.01c.5523 0 1-.4477 1-1s-.4477-1-1-1z"/><path d="m15.2413 1h-6.4826c-.80496-.000012-1.46933-.000022-2.01052.04419-.5621.04593-1.07881.14449-1.56414.39179-.75265.38349-1.36457.99541-1.74806 1.74806-.2473.48533-.34586 1.00204-.39179 1.56414-.04421.54119-.0442 1.20554-.04419 2.01051v10.48261c-.00001.805-.00002 1.4693.04419 2.0105.04593.5621.14449 1.0788.39179 1.5642.38349.7526.99541 1.3645 1.74806 1.748.48533.2473 1.00204.3459 1.56414.3918.54119.0442 1.20554.0442 2.0105.0442h6.48262c.1618 0 .2428 0 .2603-.0012.3876-.0274.5498-.2562.4471-.6309-.0047-.017-.0464-.1357-.1298-.3731-.1094-.3113-.1689-.6461-.1689-.9948 0-.536.1406-1.0392.3869-1.4747-.1054-.1789-.1937-.3716-.2621-.5766-.1192-.3577-.1673-.722-.152-1.0775-.0395-.0121-.079-.0251-.1184-.039-1.5629-.5498-2.3843-2.2625-1.8344-3.8255.4113-1.1692 1.2231-2.1551 2.2916-2.7831 1.0686-.628 2.325-.8576 3.5466-.648.0899.0154.1793.0331.268.0531.4988.1126.7482.1689.8791.1261.1312-.0429.2034-.1007.2741-.2192.0706-.1183.0706-.3355.0706-.76976v-3.00716c0-.80496 0-1.46931-.0442-2.0105-.0459-.5621-.1445-1.07881-.3918-1.56414-.3835-.75265-.9954-1.36457-1.748-1.74806-.4854-.2473-1.0021-.34586-1.5642-.39179-.5412-.044212-1.2055-.044202-2.0105-.04419z"/></g></svg>

<svg width="24" height="24" viewBox="0 0 24 24" fill="none" xmlns="http://www.w3.org/2000/svg">
<path d="M17.9884 14.6721C18.2426 14.5227 18.5414 14.4681 18.832 14.518C19.1225 14.5678 19.3861 14.7189 19.5759 14.9444C19.7658 15.1699 19.8697 15.4554 19.8693 15.7502V15.7517C19.8693 15.9703 19.6921 16.2714 19.1904 16.6059C18.97 16.7528 18.7425 16.8673 18.5661 16.9457C18.4793 16.9842 18.4084 17.0125 18.3616 17.0304C18.3382 17.0393 18.3211 17.0455 18.3112 17.049L18.302 17.0522L18.3031 17.0519C17.7802 17.2271 17.4978 17.7928 17.6723 18.3162C17.8469 18.8402 18.4132 19.1233 18.9372 18.9487L18.9384 18.9483L18.9812 18.9334C19.0043 18.9252 19.0354 18.9139 19.0735 18.8994C19.1496 18.8704 19.2544 18.8284 19.3784 18.7733C19.6236 18.6643 19.9581 18.4978 20.2998 18.27C20.9221 17.8551 21.8688 17.0324 21.8693 15.7526C21.8703 14.9857 21.5999 14.2431 21.106 13.6564C20.612 13.0695 19.9262 12.6765 19.1701 12.5468C18.414 12.4171 17.6364 12.5592 16.9751 12.9478C16.3137 13.3365 15.8113 13.9467 15.5567 14.6704C15.3734 15.1914 15.6472 15.7623 16.1682 15.9456C16.6892 16.1288 17.2601 15.8551 17.4434 15.3341C17.5412 15.056 17.7343 14.8215 17.9884 14.6721Z" fill="#801ED7"/>
<path d="M18.65 20C18.0977 20 17.65 20.4477 17.65 21C17.65 21.5523 18.0977 22 18.65 22H18.66C19.2123 22 19.66 21.5523 19.66 21C19.66 20.4477 19.2123 20 18.66 20H18.65Z" fill="#801ED7"/>
<path d="M15.2413 1H8.7587C7.95374 0.999988 7.28937 0.999978 6.74818 1.04419C6.18608 1.09012 5.66937 1.18868 5.18404 1.43598C4.43139 1.81947 3.81947 2.43139 3.43598 3.18404C3.18868 3.66937 3.09012 4.18608 3.04419 4.74818C2.99998 5.28937 2.99999 5.95372 3 6.75869V17.2413C2.99999 18.0463 2.99998 18.7106 3.04419 19.2518C3.09012 19.8139 3.18868 20.3306 3.43598 20.816C3.81947 21.5686 4.43139 22.1805 5.18404 22.564C5.66937 22.8113 6.18608 22.9099 6.74818 22.9558C7.28937 23 7.95372 23 8.75868 23H15.2413C15.4031 23 15.4841 23 15.5016 22.9988C15.8892 22.9714 16.0514 22.7426 15.9487 22.3679C15.944 22.3509 15.9023 22.2322 15.8189 21.9948C15.7095 21.6835 15.65 21.3487 15.65 21C15.65 20.464 15.7906 19.9608 16.0369 19.5253C15.9315 19.3464 15.8432 19.1537 15.7748 18.9487C15.6556 18.591 15.6075 18.2267 15.6228 17.8712C15.5833 17.8591 15.5438 17.8461 15.5044 17.8322C13.9415 17.2824 13.1201 15.5697 13.67 14.0067C14.0813 12.8375 14.8931 11.8516 15.9616 11.2236C17.0302 10.5956 18.2866 10.366 19.5082 10.5756C19.5981 10.591 19.6875 10.6087 19.7762 10.6287C20.275 10.7413 20.5244 10.7976 20.6553 10.7548C20.7865 10.7119 20.8587 10.6541 20.9294 10.5356C21 10.4173 21 10.2001 21 9.76584V6.75868C21 5.95372 21 5.28937 20.9558 4.74818C20.9099 4.18608 20.8113 3.66937 20.564 3.18404C20.1805 2.43139 19.5686 1.81947 18.816 1.43598C18.3306 1.18868 17.8139 1.09012 17.2518 1.04419C16.7106 0.999978 16.0463 0.999988 15.2413 1Z" fill="#801ED7"/>
</svg>
